.icons/Gruvbox-Plus-Dark/apps/16/vmd.svg

<svg width="16" height="16" version="1.1" xmlns="http://www.w3.org/2000/svg">
  <defs>
    <style type="text/css" id="current-color-scheme">.ColorScheme-Text { color:#ebdbb2; } .ColorScheme-Highlight { color:#458588; }</style>
  </defs>
  <path class="ColorScheme-Text" fill="currentColor" d="m0 4.414 1.674 7.172h1.472l1.675-7.172h-1.475l-0.936 4.015-0.938-4.015zm5.254 0-1.433 7.172h1.461l0.756-3.784 0.882 3.784h1.472l0.881-3.784 0.757 3.784h1.461l-1.433-7.172h-1.467l-0.935 4.015-0.936-4.015zm7.88 1.616c0.173 0.042 0.202 4e-3 0.397 0.101 0.545 0.273 1.036 0.674 1.036 1.869s-0.491 1.596-1.036 1.869c-0.195 0.097-0.224 0.059-0.397 0.101zm-1.432-1.616v7.172h0.716s0.865 0.01 1.753-0.434c0.887-0.444 1.829-1.478 1.829-3.152s-0.942-2.708-1.829-3.152c-0.888-0.444-1.753-0.434-1.753-0.434z"/>
</svg>

<svg xmlns="http://www.w3.org/2000/svg" style="isolation:isolate" width="16" height="16" viewBox="0 0 16 16">
 <defs>
  <style id="current-color-scheme" type="text/css">
   .ColorScheme-Text { color:#ebdbb2; } .ColorScheme-Highlight { color:#458588; }
  </style>
  <linearGradient id="arrongin" x1="0%" x2="0%" y1="0%" y2="100%">
   <stop offset="0%" style="stop-color:#d79921; stop-opacity:1"/>
   <stop offset="100%" style="stop-color:#b57614; stop-opacity:1"/>
  </linearGradient>
  <linearGradient id="aurora" x1="0%" x2="0%" y1="0%" y2="100%">
   <stop offset="0%" style="stop-color:#83a598; stop-opacity:1"/>
   <stop offset="100%" style="stop-color:#b16286; stop-opacity:1"/>
  </linearGradient>
  <linearGradient id="fitdance" x1="0%" x2="0%" y1="0%" y2="100%">
   <stop offset="0%" style="stop-color:#8ec07c; stop-opacity:1"/>
   <stop offset="100%" style="stop-color:#458588; stop-opacity:1"/>
  </linearGradient>
  <linearGradient id="oomox" x1="0%" x2="0%" y1="0%" y2="100%">
   <stop offset="0%" style="stop-color:#458588; stop-opacity:1"/>
   <stop offset="100%" style="stop-color:#928374; stop-opacity:1"/>
  </linearGradient>
  <linearGradient id="rainblue" x1="0%" x2="0%" y1="0%" y2="100%">
   <stop offset="0%" style="stop-color:#b8bb26; stop-opacity:1"/>
   <stop offset="100%" style="stop-color:#076678; stop-opacity:1"/>
  </linearGradient>
  <linearGradient id="sunrise" x1="0%" x2="0%" y1="0%" y2="100%">
   <stop offset="0%" style="stop-color: #fe8019; stop-opacity:1"/>
   <stop offset="100%" style="stop-color: #fabd2f; stop-opacity:1"/>
  </linearGradient>
  <linearGradient id="telinkrin" x1="0%" x2="0%" y1="0%" y2="100%">
   <stop offset="0%" style="stop-color: #83a598; stop-opacity:1"/>
   <stop offset="100%" style="stop-color: #83a598; stop-opacity:1"/>
  </linearGradient>
  <linearGradient id="60spsycho" x1="0%" x2="0%" y1="0%" y2="100%">
   <stop offset="0%" style="stop-color: #fb4934; stop-opacity:1"/>
   <stop offset="25%" style="stop-color: #fabd2f; stop-opacity:1"/>
   <stop offset="50%" style="stop-color: #fe8019; stop-opacity:1"/>
   <stop offset="100%" style="stop-color: #689d6a; stop-opacity:1"/>
  </linearGradient>
  <linearGradient id="90ssummer" x1="0%" x2="0%" y1="0%" y2="100%">
   <stop offset="0%" style="stop-color: #b16286; stop-opacity:1"/>
   <stop offset="20%" style="stop-color: #8ec07c; stop-opacity:1"/>
   <stop offset="50%" style="stop-color: #fabd2f; stop-opacity:1"/>
   <stop offset="100%" style="stop-color: #458588; stop-opacity:1"/>
  </linearGradient>
  <linearGradient id="cyberneon" x1="0%" x2="0%" y1="0%" y2="100%">
    <stop offset="0" style="stop-color:#83a598; stop-opacity:1"/>
    <stop offset="1" style="stop-color:#b16286; stop-opacity:1"/>
  </linearGradient>
  <clipPath id="_clipPath_L7nYLg26Cs6TO7UIBJlePBvcGBanvtHn">
   <rect width="16" height="16"/>
  </clipPath>
 </defs>
 <g clip-path="url(#_clipPath_L7nYLg26Cs6TO7UIBJlePBvcGBanvtHn)">
  <rect style="fill:currentColor" class="ColorScheme-Text" fill-opacity="0" width="16" height="16"/>
  <path style="fill:currentColor" class="ColorScheme-Text" fill-rule="evenodd" d="M 0 4.414 L 1.015 8.756 L 1.674 11.586 L 3.146 11.586 L 3.806 8.756 L 3.866 8.502 L 4.821 4.414 L 3.349 4.414 L 3.346 4.414 L 2.41 8.429 L 1.475 4.414 L 1.472 4.414 L 0 4.414 L 0 4.414 Z M 5.254 4.414 L 3.849 11.445 L 3.821 11.586 L 5.282 11.586 L 6.038 7.802 L 6.92 11.586 L 8.392 11.586 L 9.273 7.802 L 10.03 11.586 L 11.491 11.586 L 11.463 11.445 L 10.058 4.414 L 8.591 4.414 L 7.656 8.429 L 6.72 4.414 L 5.254 4.414 L 5.254 4.414 Z M 13.134 6.03 C 13.307 6.072 13.336 6.034 13.531 6.131 C 14.076 6.404 14.567 6.805 14.567 8 C 14.567 9.195 14.076 9.596 13.531 9.869 C 13.336 9.966 13.307 9.928 13.134 9.97 L 13.134 6.03 L 13.134 6.03 Z M 11.702 4.414 L 11.702 5.131 L 11.702 11.586 L 12.418 11.586 C 12.418 11.586 13.283 11.596 14.171 11.152 C 15.058 10.708 16 9.674 16 8 C 16 6.326 15.058 5.292 14.171 4.848 C 13.283 4.404 12.418 4.414 12.418 4.414 L 11.702 4.414 L 11.702 4.414 Z"/>
 </g>
</svg>
